X:1
T:Deer's March, The
L:1/8
M:4/4
I:linebreak $
K:G
V:1 treble 
V:1
|: A | B3 B AB AD | G2 Gd cA GA | AB Bd cA GF | DG GA G4 |$ AB B2 AB AD | G2 Gd cA G2 | %7
 fe fd cA GF | DG GA G3 ::$ G | GA Bc d2 ef | ga gf g2 G2 | GA Bc d2 ef | gf ed B4 |$ g3 g ef fd | %15
 AB Bd cA G2 | fe fd cA GF | DG GA G3 :| %18
